libs/ui/packages/crypto-icons/src/svg/WAN.svg

<svg width="24" height="24" viewBox="0 0 24 24" fill="none">
<path fill-rule="evenodd" clip-rule="evenodd" d="M5.25 8.3175L7.25025 9.165V13.9298L12 11.0895L16.7955 13.9298V9.165L18.75 8.3175V17.298L12 13.3118L5.25 17.298V8.3175ZM5.47725 7.95075L12 4.125L18.5685 7.95075L16.7955 8.68425L12 5.91225L7.25025 8.68425L5.47725 7.95075ZM6.8865 16.8165L8.364 15.969L12.0225 18.0878L15.636 15.969L17.1585 16.8165L12.0225 19.875L6.8865 16.8165Z" fill="white"/>
<path fill-rule="evenodd" clip-rule="evenodd" d="M5.25 8.3175L7.25025 9.165V13.9298L12 11.0895L16.7955 13.9298V9.165L18.75 8.3175V17.298L12 13.3118L5.25 17.298V8.3175ZM5.47725 7.95075L12 4.125L18.5685 7.95075L16.7955 8.68425L12 5.91225L7.25025 8.68425L5.47725 7.95075ZM6.8865 16.8165L8.364 15.969L12.0225 18.0878L15.636 15.969L17.1585 16.8165L12.0225 19.875L6.8865 16.8165Z" fill="#136AAD"/>
</svg>

<svg width="24" height="24" viewBox="0 0 24 24" fill="none"><path fill="#fff" fill-rule="evenodd" d="m5.25 8.318 2 .847v4.765L12 11.09l4.796 2.84V9.165l1.954-.847v8.98L12 13.312l-6.75 3.986zm.227-.367L12 4.125l6.569 3.826-1.773.733L12 5.912 7.25 8.684zm1.41 8.866 1.477-.848 3.659 2.119 3.613-2.119 1.523.848-5.136 3.058z" clip-rule="evenodd"/><path fill="#136aad" fill-rule="evenodd" d="m5.25 8.318 2 .847v4.765L12 11.09l4.796 2.84V9.165l1.954-.847v8.98L12 13.312l-6.75 3.986zm.227-.367L12 4.125l6.569 3.826-1.773.733L12 5.912 7.25 8.684zm1.41 8.866 1.477-.848 3.659 2.119 3.613-2.119 1.523.848-5.136 3.058z" clip-rule="evenodd"/></svg>
